X:769
T:Reel 769
M:4/4
K:Gmaj
L:1/8
dc| (3BAG dG eGdG| (3BAG  (3def g2dc| (3BAG dG ec (3cBc |egfd cedc| (3BAG dG eGdG| (3BAG  (3def g2 (3def |gbaf gf (3def |gfaf g2|de|fefg fedc| (3BAG Ad f2ef|gefd fcde|fdec d2de|fefg fdde|fgab c'2bc'| (3d'c'b  (3c'ba bgaf|g2df g2|
